!!!OTL: 114. Freylekhs
!!!Genre:	Freylekhs
!!!Mode:	Altered Dorian
!!!Listening/dance:	dance
!!!:	*g:; *G:; *g:
!!!One_Mode:	no
**kern
*thru
*part1
*staff1
*clefG2
*k[b-e-]
!!!Begin-Modulation
*g:dor
=7:|!|:
!LO:TX:a:i:t=G-minor
(>8qd/
*^
8gL)	2G
8gJ	.
(>8gL	.
8dJ)	.
=2	=2
8gL	2G
8gJ	.
(>8gL	.
8dJ)	.
=3	=3
(>8gL	2G
16ccL	.
16b-JJ)	.
(>16aLL	.
16g	.
16a	.
16b-JJ)	.
=4	=4
16gLL	2G
16d	.
16g	.
16dJJ	.
8b-L	.
16aL	.
16gJJ	.
=5	=5
8gL	2G
16ccL	.
16b-JJ	.
16aLL	.
16g	.
16a	.
16b-JJ	.
=6	=6
2g	2G
*v	*v
*>B
!!!End-Modulation
*g:dor
=7:|!|:
*k[b-]
!LO:TX:a:i:t=G-raised-fourth
(>16aLL
16b-
16cc#X
16ddJJ)
(>8.cc#L
16b-Jk)
=8
(>16b-LL
16a)
(>16ccn
16b-JJ)
(<16b-LL
16a)
(<16a
16gJJ)
=9
16aLL
16b-
16cc#X
16ddJJ
8cc#L
16b-L
16aJJ
=10
4g
4gg
=11
16aLL
16b-
16cc#X
16ddJJ
8.cc#L
16b-Jk
=12
(>16b-LL
16a)
(>16ccn
16b-JJ)
(<16b-LL
16a)
(<16a
16gJJ)
=13
16aLL
16b-
16cc#X
16ddJJ
8cc#L
16b-L
16aJJ
*>B1
=14
2g
*>B
*k[b-]
!LO:TX:a:i:t=G-raised-fourth
(>16aLL
16b-
16cc#X
16ddJJ)
(>8.cc#L
16b-Jk)
=8
(>16b-LL
16a)
(>16ccn
16b-JJ)
(<16b-LL
16a)
(<16a
16gJJ)
=9
16aLL
16b-
16cc#X
16ddJJ
8cc#L
16b-L
16aJJ
=10
4g
4gg
=11
16aLL
16b-
16cc#X
16ddJJ
8.cc#L
16b-Jk
=12
(>16b-LL
16a)
(>16ccn
16b-JJ)
(<16b-LL
16a)
(<16a
16gJJ)
=13
16aLL
16b-
16cc#X
16ddJJ
8cc#L
16b-L
16aJJ
*>B2
=15:|!
4.g
8cc#X
*>C
=16!|:
(>4.dd
8cc#X)
=17
(>4.dd
8cc#X)
=18
(>8.ddmL
16cc#XJk)
(>8.ddmL
16cc#XJk)
=19
4.dd
8dd
=20
16cc#XLL
16dd
16ee
16ffJJ
16eeLL
16dd
16cc#
16eeJJ
=21
8ddL
16ddL
16ddJJ
16ddLL
16dd
16dd
16ddJJ
=22
16cc#XLL
16dd
16ee
16ffJJ
16eeLL
16dd
16cc#
16eeJJ
=23
4.dd
8dd
=24
(>8.ggL
16ffJk)
(>16ffLL
16ee)
(>16ee
16ddJJ)
=25
(>8.ggL
16ffJk)
(>16ffLL
16ee)
(>16ee
16ddJJ)
=26
16cc#XLL
16dd
16ee
16ffJJ
16eeLL
16dd
16cc#
16eeJJ
=27
4.dd
8b-
=28
4dd
(>8qcc#X/
8ddL)
(>8qcc#/
8ddJ)
=29
4.cc#X
24b-LL
24a
24b-JJ
=30
4dd
(>8qcc#X/
8ddL)
(>8qcc#/
8ddJ)
=31
8cc#XL
8b-J
8aL
8gJ
=32
4dd
(>8qcc#X/
8ddL)
(>8qcc#/
8ddJ)
=33
4.cc#X
24b-LL
24a
24b-JJ
=34
4dd
(>8qcc#X/
8ddL)
(>8qee/
8ddJ)
=35
(>8cc#XL
8b-J)
8aL
8gJ
=36
4.g
(<16aLL
16b-JJ)
=37
4.g
(<16aLL
16b-JJ)
=38
8gL
(<16aL
16b-JJ)
(8gL
<16aL
16b-JJ)
=39
4.g
8d
*>C
!!!Begin-Modulation
*-
